src/assets/stream.svg

<svg xmlns="http://www.w3.org/2000/svg" width="2404" height="1229" fill="none" viewBox="0 0 2404 1229">
    <path fill="#d3f0ff" stroke="#7f42e1" stroke-linecap="round" stroke-linejoin="round" stroke-width="22" d="m1710.74 297.828 250.28 232.28 184.28 93.617-250.29-232.306z"/>
    <path fill="#d3f0ff" stroke="#7f42e1" stroke-linecap="round" stroke-linejoin="round" stroke-width="22" d="m1614.73 699.568 250.28 232.307 304.81-215.958-250.28-232.306z"/>
    <path fill="#fff" stroke="#7f42e1" stroke-linecap="round" stroke-linejoin="round" stroke-width="22" d="m1846.55 788.535 549.06-719.36-684.86 228.653 184.27 93.591-305.63 222.69 25.33 85.46 304.82-215.958-72.96 304.917z"/>
    <path fill="#d3f0ff" stroke="#7f42e1" stroke-linecap="round" stroke-linejoin="round" stroke-width="22" d="m2395.61 69.173 250.29 232.306-549.06 719.361-250.28-232.308zM1194.98 933.405l258.11 195.515-382.26-120.42-8.11 73.49 382.26 120.43-282.46 25.19 121.55 92.07 282.45-25.19-17.2 156.11 180.06 56.68 17.26-155.99 258.02 195.44 133.08-11.87-258.06-195.48 382.18 120.43 8.11-73.49-382.31-120.46 282.54-25.2-121.55-92.07-282.37 25.17 17.17-156.06-180.06-56.677-17.22 156.027-258.06-195.481-133.08 11.872z"/>
    <path fill="#d3f0ff" stroke="#7f42e1" stroke-linecap="round" stroke-linejoin="round" stroke-width="22" d="m2299.84 963.774-129.65 276.886-282.53 25.2 129.65-276.885z"/>
    <path fill="#d3f0ff" stroke="#7f42e1" stroke-linecap="round" stroke-linejoin="round" stroke-width="22" d="m2261.86 1459.82 129.65-276.88-382.18-120.44-129.68 276.93zm-937.17-803.248-129.7 276.847 258.16 195.551 129.65-276.883zm408.3 27.624L1603.3 961.043l-17.21 156.027 129.68-276.931z"/>
    <path fill="#d3f0ff" stroke="#7f42e1" stroke-linecap="round" stroke-linejoin="round" stroke-width="22" d="m1574.68 925.582-382.26-120.423-129.65 276.881 382.25 120.42zm-374.15-193.934-129.65 276.882-8.11 73.5 129.65-276.884z"/>
    <path fill="#d3f0ff" stroke="#7f42e1" stroke-linecap="round" stroke-linejoin="round" stroke-width="22" d="m1292.22 950.773-129.65 276.887 121.54 92.07 129.66-276.89zm404 66.887-129.65 276.88-282.45 25.19 129.65-276.88zm571.18 240.32-129.69 276.93-133.04 11.83 129.69-276.85zm-391.05-183.53-129.65 276.88 257.96 195.41 129.7-276.85z"/>
    <path fill="#fff" stroke="#7f42e1" stroke-linecap="round" stroke-linejoin="round" stroke-width="22" d="m1324.69 656.569 258.1 195.515-382.26-120.423-8.11 73.497 382.26 120.423-282.45 25.19 121.54 92.069 282.46-25.19-17.2 156.11 180.06 56.68 17.26-155.99 258.01 195.44 133.08-11.87-258.06-195.48 382.13 120.4 8.11-73.5-382.3-120.455 282.53-25.2-121.54-92.07-282.37 25.177 17.16-156.06-180.06-56.681-17.21 156.026-258.06-195.48z"/>
    <path fill="#d3f0ff" stroke="#7f42e1" stroke-linecap="round" stroke-linejoin="round" stroke-width="22" d="m1679.01 1173.74-129.7 276.85 180.07 56.76 129.69-276.93zm-400.38-409.365c3.19 57.855-17.57 135.51-53.8 214.335-21.22 46.22-47.74 92.83-77.86 136.07l37.09 79.42-183.38 89.06-187.425 200.31c-79.26 84.72-150.724 115.42-190.493 90.34l-.785-.47-308.013-182.87 623.009-883.279 306.817 182.184 1.06.643c19.55 11.634 31.7 36.319 33.78 74.257"/>
    <path fill="#fff" stroke="#7f42e1" stroke-linecap="round" stroke-linejoin="round" stroke-width="22" d="M916.256 795.464c-21.222 46.223-47.747 92.827-77.869 136.067l37.097 79.419-183.387 89.01-187.423 200.32c-116.901 124.95-216.828 132.43-223.207 16.82-3.19-57.81 17.596-135.49 53.795-214.34 36.222-78.83 87.812-158.818 146.274-221.302l265.327-283.585c116.88-124.923 216.807-132.409 223.165-16.767 3.189 57.81-17.597 135.489-53.796 214.336z"/>
    <path fill="#d3f0ff" stroke="#7f42e1" stroke-linecap="round" stroke-linejoin="round" stroke-width="22" d="m692.098 1100.01 308.572 183.26 183.41-89.04-308.618-183.25zm183.379-89.04-37.074-79.395 308.587 183.235 37.1 79.42z"/>
</svg>

<svg width="2404" height="1229" viewBox="0 0 2404 1229" fill="none" xmlns="http://www.w3.org/2000/svg">
<path d="M1710.74 297.828L1961.02 530.108L2145.3 623.725L1895.01 391.419L1710.74 297.828Z" fill="#D3F0FF" stroke="#7F42E1" stroke-width="22" stroke-linecap="round" stroke-linejoin="round"/>
<path d="M1614.73 699.568L1865.01 931.875L2169.82 715.917L1919.54 483.611L1614.73 699.568Z" fill="#D3F0FF" stroke="#7F42E1" stroke-width="22" stroke-linecap="round" stroke-linejoin="round"/>
<path d="M1846.55 788.535L2395.61 69.1751L1710.75 297.828L1895.02 391.419L1589.39 614.109L1614.72 699.569L1919.54 483.611L1846.58 788.528L1846.55 788.535Z" fill="white" stroke="#7F42E1" stroke-width="22" stroke-linecap="round" stroke-linejoin="round"/>
<path d="M2395.61 69.1729L2645.9 301.479L2096.84 1020.84L1846.56 788.532L2395.61 69.1729Z" fill="#D3F0FF" stroke="#7F42E1" stroke-width="22" stroke-linecap="round" stroke-linejoin="round"/>
<path d="M1194.98 933.405L1453.09 1128.92L1070.83 1008.5L1062.72 1081.99L1444.98 1202.42L1162.52 1227.61L1284.07 1319.68L1566.52 1294.49L1549.32 1450.6L1729.38 1507.28L1746.64 1351.29L2004.66 1546.73L2137.74 1534.86L1879.68 1339.38L2261.86 1459.81L2269.97 1386.32L1887.66 1265.86L2170.2 1240.66L2048.65 1148.59L1766.28 1173.76L1783.45 1017.7L1603.39 961.023L1586.17 1117.05L1328.11 921.569L1195.03 933.441L1194.98 933.405Z" fill="#D3F0FF" stroke="#7F42E1" stroke-width="22" stroke-linecap="round" stroke-linejoin="round"/>
<path d="M2299.84 963.774L2170.19 1240.66L1887.66 1265.86L2017.31 988.975L2299.84 963.774Z" fill="#D3F0FF" stroke="#7F42E1" stroke-width="22" stroke-linecap="round" stroke-linejoin="round"/>
<path d="M2261.86 1459.82L2391.51 1182.94L2009.33 1062.5L1879.65 1339.43L2261.86 1459.82Z" fill="#D3F0FF" stroke="#7F42E1" stroke-width="22" stroke-linecap="round" stroke-linejoin="round"/>
<path d="M1324.69 656.572L1194.99 933.419L1453.15 1128.97L1582.8 852.087L1324.69 656.572Z" fill="#D3F0FF" stroke="#7F42E1" stroke-width="22" stroke-linecap="round" stroke-linejoin="round"/>
<path d="M1732.99 684.196L1603.3 961.043L1586.09 1117.07L1715.77 840.139L1732.99 684.196Z" fill="#D3F0FF" stroke="#7F42E1" stroke-width="22" stroke-linecap="round" stroke-linejoin="round"/>
<path d="M1574.68 925.582L1192.42 805.159L1062.77 1082.04L1445.02 1202.46L1574.68 925.582Z" fill="#D3F0FF" stroke="#7F42E1" stroke-width="22" stroke-linecap="round" stroke-linejoin="round"/>
<path d="M1200.53 731.648L1070.88 1008.53L1062.77 1082.03L1192.42 805.146L1200.53 731.648Z" fill="#D3F0FF" stroke="#7F42E1" stroke-width="22" stroke-linecap="round" stroke-linejoin="round"/>
<path d="M1292.22 950.773L1162.57 1227.66L1284.11 1319.73L1413.77 1042.84L1292.22 950.773Z" fill="#D3F0FF" stroke="#7F42E1" stroke-width="22" stroke-linecap="round" stroke-linejoin="round"/>
<path d="M1696.22 1017.66L1566.57 1294.54L1284.12 1319.73L1413.77 1042.85L1696.22 1017.66Z" fill="#D3F0FF" stroke="#7F42E1" stroke-width="22" stroke-linecap="round" stroke-linejoin="round"/>
<path d="M2267.4 1257.98L2137.71 1534.91L2004.67 1546.74L2134.36 1269.89L2267.4 1257.98Z" fill="#D3F0FF" stroke="#7F42E1" stroke-width="22" stroke-linecap="round" stroke-linejoin="round"/>
<path d="M1876.35 1074.45L1746.7 1351.33L2004.66 1546.74L2134.36 1269.89L1876.35 1074.45Z" fill="#D3F0FF" stroke="#7F42E1" stroke-width="22" stroke-linecap="round" stroke-linejoin="round"/>
<path d="M1324.69 656.569L1582.79 852.084L1200.53 731.661L1192.42 805.158L1574.68 925.581L1292.23 950.771L1413.77 1042.84L1696.23 1017.65L1679.03 1173.76L1859.09 1230.44L1876.35 1074.45L2134.36 1269.89L2267.44 1258.02L2009.38 1062.54L2391.51 1182.94L2399.62 1109.44L2017.32 988.985L2299.85 963.785L2178.31 871.715L1895.94 896.892L1913.1 740.832L1733.04 684.151L1715.83 840.177L1457.77 644.697L1324.69 656.569Z" fill="white" stroke="#7F42E1" stroke-width="22" stroke-linecap="round" stroke-linejoin="round"/>
<path d="M1679.01 1173.74L1549.31 1450.59L1729.38 1507.35L1859.07 1230.42L1679.01 1173.74Z" fill="#D3F0FF" stroke="#7F42E1" stroke-width="22" stroke-linecap="round" stroke-linejoin="round"/>
<path d="M1278.63 764.375C1281.82 822.23 1261.06 899.885 1224.83 978.71C1203.61 1024.93 1177.09 1071.54 1146.97 1114.78L1184.06 1194.2L1000.68 1283.26L813.255 1483.57C733.995 1568.29 662.531 1598.99 622.762 1573.91L621.977 1573.44L313.964 1390.57L936.973 507.291L1243.79 689.475L1244.85 690.118C1264.4 701.752 1276.55 726.437 1278.63 764.375Z" fill="#D3F0FF" stroke="#7F42E1" stroke-width="22" stroke-linecap="round" stroke-linejoin="round"/>
<path d="M916.256 795.464C895.034 841.687 868.509 888.291 838.387 931.531L875.484 1010.95L692.097 1099.96L504.674 1300.28C387.773 1425.23 287.846 1432.71 281.467 1317.1C278.277 1259.29 299.063 1181.61 335.262 1102.76C371.484 1023.93 423.074 943.942 481.536 881.458L746.863 597.873C863.743 472.95 963.67 465.464 970.028 581.106C973.217 638.916 952.431 716.595 916.232 795.442L916.256 795.464Z" fill="white" stroke="#7F42E1" stroke-width="22" stroke-linecap="round" stroke-linejoin="round"/>
<path d="M692.098 1100.01L1000.67 1283.27L1184.08 1194.23L875.462 1010.98L692.098 1100.01Z" fill="#D3F0FF" stroke="#7F42E1" stroke-width="22" stroke-linecap="round" stroke-linejoin="round"/>
<path d="M875.477 1010.97L838.403 931.575L1146.99 1114.81L1184.09 1194.23L875.477 1010.97Z" fill="#D3F0FF" stroke="#7F42E1" stroke-width="22" stroke-linecap="round" stroke-linejoin="round"/>
</svg>
